data/status/weather-clear-night.svg

<?xml version="1.0" encoding="UTF-8"?>
<svg height="128px" viewBox="0 0 128 128" width="128px" xmlns="http://www.w3.org/2000/svg" xmlns:xlink="http://www.w3.org/1999/xlink">
    <radialGradient id="a" cx="66.351357" cy="215.690948" gradientTransform="matrix(1.267811 0 0 1.316795 -17.769594 -241.114555)" gradientUnits="userSpaceOnUse" r="57.147449">
        <stop offset="0" stop-color="#f6f5f4"/>
        <stop offset="0.826966" stop-color="#c9c8c5"/>
        <stop offset="1" stop-color="#e1e1e1"/>
    </radialGradient>
    <linearGradient id="b" gradientUnits="userSpaceOnUse">
        <stop offset="0" stop-color="#fdfacf"/>
        <stop offset="0.4" stop-color="#f9f06b"/>
        <stop offset="1" stop-color="#f6d32d"/>
    </linearGradient>
    <linearGradient id="c" gradientTransform="matrix(0.376795 -0.376795 0.376795 0.376795 -37.010773 -4.914297)" x1="160.234024" x2="160.234024" xlink:href="#b" y1="218.688614" y2="257.980621"/>
    <linearGradient id="d" gradientUnits="userSpaceOnUse">
        <stop offset="0" stop-color="#f5c211"/>
        <stop offset="1" stop-color="#f5c211" stop-opacity="0"/>
    </linearGradient>
    <radialGradient id="e" cx="107.50499" cy="217.035126" gradientTransform="matrix(5.443289 0.0167383 -0.0118364 3.849196 -474.611847 -814.383657)" r="2.35742" xlink:href="#d"/>
    <filter id="f" height="100%" width="100%" x="0%" y="0%">
        <feColorMatrix in="SourceGraphic" type="matrix" values="0 0 0 0 1 0 0 0 0 1 0 0 0 0 1 0 0 0 1 0"/>
    </filter>
    <mask id="g">
        <g filter="url(#f)">
            <rect fill-opacity="0.442" height="128" width="128"/>
        </g>
    </mask>
    <linearGradient id="h" gradientUnits="userSpaceOnUse">
        <stop offset="0" stop-color="#fefbee"/>
        <stop offset="1" stop-color="#f6ce43" stop-opacity="0.925197"/>
    </linearGradient>
    <radialGradient id="i" cx="104.183548" cy="209.276962" gradientTransform="matrix(1.59822 0 0 1.662441 -61.748764 -327.676702)" r="9.074218" xlink:href="#h"/>
    <clipPath id="j">
        <rect height="128" width="128"/>
    </clipPath>
    <linearGradient id="k" gradientTransform="matrix(0.269905 -0.269905 0.269905 0.269905 -9.873905 34.436936)" x1="160.234024" x2="160.234024" xlink:href="#b" y1="218.688614" y2="257.980621"/>
    <radialGradient id="l" cx="107.50499" cy="217.035126" gradientTransform="matrix(3.899127 0.01199 -0.00847864 2.75725 -323.335567 -545.400788)" r="2.35742" xlink:href="#d"/>
    <mask id="m">
        <g filter="url(#f)">
            <rect fill-opacity="0.442" height="128" width="128"/>
        </g>
    </mask>
    <radialGradient id="n" cx="104.183548" cy="209.276962" gradientTransform="matrix(1.144834 0 0 1.190837 -27.594181 -196.763685)" r="9.074218" xlink:href="#h"/>
    <clipPath id="o">
        <rect height="128" width="128"/>
    </clipPath>
    <path d="m 63.851562 4.644531 c -32.78125 0 -59.355468 26.574219 -59.355468 59.355469 s 26.574218 59.355469 59.355468 59.355469 c 24.105469 0 45.816407 -14.578125 54.9375 -36.894531 c -2.679687 0.503906 -5.402343 0.753906 -8.128906 0.753906 c -24.472656 0 -44.308594 -19.839844 -44.308594 -44.308594 c 0 -13.65625 6.296876 -26.546875 17.0625 -34.945312 c -6.289062 -2.195313 -12.902343 -3.316407 -19.5625 -3.316407 z m 0 0" fill="url(#a)"/>
    <path d="m 80.65625 7.074219 c -9.117188 8.390625 -14.304688 20.210937 -14.304688 32.601562 c 0 0.535157 0.011719 1.066407 0.027344 1.601563 c 0.484375 -13.074219 6.71875 -25.269532 17.039063 -33.316406 c -0.914063 -0.316407 -1.835938 -0.613282 -2.761719 -0.886719 z m -76.136719 55.316406 c -0.015625 0.539063 -0.023437 1.074219 -0.023437 1.609375 c 0 32.78125 26.574218 59.355469 59.355468 59.355469 c 24.105469 0 45.816407 -14.578125 54.941407 -36.890625 c -0.519531 0.09375 -1.042969 0.183594 -1.5625 0.261718 c -9.9375 20.429688 -30.660157 33.398438 -53.378907 33.398438 c -32.148437 0 -58.453124 -25.597656 -59.332031 -57.734375 z m 0 0" fill="#deddda"/>
    <path d="m 126.148438 21 l -13.433594 4.714844 l -4.714844 13.433594 l -4.714844 -13.433594 l -13.433594 -4.714844 l 13.433594 -4.714844 l 4.714844 -13.433594 l 4.714844 13.433594 z m 0 0" fill="url(#c)"/>
    <path d="m 108 21 l 4.714844 4.714844 l 13.433594 -4.714844 z m 0 0" fill="#f5c211"/>
    <path d="m 108 21 l -4.714844 4.714844 l -13.433594 -4.714844 z m 0 0" fill="#f5c211"/>
    <path d="m 108 21 l 4.714844 4.714844 l -4.714844 13.433594 z m 0 0" fill="url(#e)"/>
    <path d="m 108 21 l 4.714844 -4.714844 l -4.714844 -13.433594 z m 0 0" fill="#f5c211" fill-opacity="0.488189"/>
    <g clip-path="url(#j)" mask="url(#g)">
        <path d="m 108 21 l -4.714844 -4.714844 l -13.433594 4.714844 z m 0 0" fill="url(#i)"/>
    </g>
    <path d="m 107 53 l -9.621094 3.378906 l -3.378906 9.621094 l -3.378906 -9.621094 l -9.621094 -3.378906 l 9.621094 -3.378906 l 3.378906 -9.621094 l 3.378906 9.621094 z m 0 0" fill="url(#k)"/>
    <path d="m 94 53 l 3.378906 3.378906 l 9.621094 -3.378906 z m 0 0" fill="#f5c211"/>
    <path d="m 94 53 l -3.378906 3.378906 l -9.621094 -3.378906 z m 0 0" fill="#f5c211"/>
    <path d="m 94 53 l 3.378906 3.378906 l -3.378906 9.621094 z m 0 0" fill="url(#l)"/>
    <path d="m 94 53 l 3.378906 -3.378906 l -3.378906 -9.621094 z m 0 0" fill="#f5c211" fill-opacity="0.488189"/>
    <g clip-path="url(#o)" mask="url(#m)">
        <path d="m 94 53 l -3.378906 -3.378906 l -9.621094 3.378906 z m 0 0" fill="url(#n)"/>
    </g>
</svg>

<svg xmlns="http://www.w3.org/2000/svg" xmlns:xlink="http://www.w3.org/1999/xlink" height="128" width="128"><defs><linearGradient xlink:href="#a" id="p" x1="4.496" y1="65.215" x2="118.793" y2="65.215" gradientUnits="userSpaceOnUse" gradientTransform="translate(-4.496 -7.074)"/><linearGradient id="a"><stop offset="0" stop-color="#deddda"/><stop offset=".506" stop-color="#f2f2f0"/><stop offset="1" stop-color="#c5c3be"/></linearGradient></defs><linearGradient id="b" gradientUnits="userSpaceOnUse"><stop offset="0" stop-color="#fdfacf"/><stop offset=".4" stop-color="#f9f06b"/><stop offset="1" stop-color="#f6d32d"/></linearGradient><linearGradient id="f" gradientTransform="rotate(-45 -24.438 42.219) scale(.53287)" x1="160.234" x2="160.234" xlink:href="#b" y1="218.689" y2="257.981"/><linearGradient id="c" gradientUnits="userSpaceOnUse"><stop offset="0" stop-color="#f5c211"/><stop offset="1" stop-color="#f5c211" stop-opacity="0"/></linearGradient><radialGradient id="g" cx="107.505" cy="217.035" gradientTransform="matrix(5.44329 .01674 -.01184 3.8492 -474.612 -814.384)" r="2.357" xlink:href="#c"/><filter id="d" height="100%" width="100%" x="0%" y="0%"><feColorMatrix in="SourceGraphic" values="0 0 0 0 1 0 0 0 0 1 0 0 0 0 1 0 0 0 1 0"/></filter><mask id="i"><g filter="url(#d)"><path fill-opacity=".442" d="M0 0h128v128H0z"/></g></mask><linearGradient id="e" gradientUnits="userSpaceOnUse"><stop offset="0" stop-color="#fefbee"/><stop offset="1" stop-color="#f6ce43" stop-opacity=".925"/></linearGradient><radialGradient id="j" cx="104.184" cy="209.277" gradientTransform="matrix(1.59822 0 0 1.66244 -61.749 -327.677)" r="9.074" xlink:href="#e"/><clipPath id="h"><path d="M0 0h128v128H0z"/></clipPath><linearGradient id="k" gradientTransform="rotate(-45 36.632 29.137) scale(.3817)" x1="160.234" x2="160.234" xlink:href="#b" y1="218.689" y2="257.981"/><radialGradient id="l" cx="107.505" cy="217.035" gradientTransform="matrix(3.89913 .01199 -.00848 2.75725 -323.336 -545.4)" r="2.357" xlink:href="#c"/><mask id="n"><g filter="url(#d)"><path fill-opacity=".442" d="M0 0h128v128H0z"/></g></mask><radialGradient id="o" cx="104.184" cy="209.277" gradientTransform="matrix(1.14483 0 0 1.19084 -27.594 -196.764)" r="9.074" xlink:href="#e"/><clipPath id="m"><path d="M0 0h128v128H0z"/></clipPath><path d="M126.148 21l-13.433 4.715L108 39.148l-4.715-13.433L89.852 21l13.433-4.715L108 2.852l4.715 13.433zm0 0" fill="url(#f)"/><path d="M108 21l4.715 4.715L126.148 21zm0 0l-4.715 4.715L89.852 21zm0 0" fill="#f5c211"/><path d="M108 21l4.715 4.715L108 39.148zm0 0" fill="url(#g)"/><path d="M108 21l4.715-4.715L108 2.852zm0 0" fill="#f5c211" fill-opacity=".488"/><g clip-path="url(#h)" mask="url(#i)"><path d="M108 21l-4.715-4.715L89.852 21zm0 0" fill="url(#j)"/></g><path d="M107 53l-9.621 3.379L94 66l-3.379-9.621L81 53l9.621-3.379L94 40l3.379 9.621zm0 0" fill="url(#k)"/><path d="M94 53l3.379 3.379L107 53zm0 0l-3.379 3.379L81 53zm0 0" fill="#f5c211"/><path d="M94 53l3.379 3.379L94 66zm0 0" fill="url(#l)"/><path d="M94 53l3.379-3.379L94 40zm0 0" fill="#f5c211" fill-opacity=".488"/><g clip-path="url(#m)" mask="url(#n)"><path d="M94 53l-3.379-3.379L81 53zm0 0" fill="url(#o)"/></g><path d="M63.852 4.645C31.07 4.645 4.496 31.219 4.496 64s26.574 59.355 59.356 59.355c24.105 0 45.816-14.578 54.937-36.894-2.68.504-5.402.754-8.129.754-24.472 0-44.308-19.84-44.308-44.309A44.322 44.322 0 0183.414 7.961a59.359 59.359 0 00-19.562-3.316zm0 0" fill="#f6f5f4"/><path d="M80.656 7.074A44.303 44.303 0 0066.38 41.277 44.327 44.327 0 0183.418 7.961a63.037 63.037 0 00-2.762-.887zM4.52 62.391A54.158 54.158 0 004.496 64c0 32.781 26.574 59.355 59.356 59.355 24.105 0 45.816-14.578 54.941-36.89a54.29 54.29 0 01-1.563.262 59.36 59.36 0 01-53.378 33.398c-32.149 0-58.454-25.598-59.332-57.734zm0 0" fill="url(#p)" style="font-variation-settings:normal"/><path d="M63.852 4.645C31.07 4.645 4.496 31.219 4.496 64c0 .335.02.666.025 1 .537-32.318 26.884-58.355 59.33-58.355A59.359 59.359 0 0181.68 9.387a44.322 44.322 0 011.734-1.426 59.359 59.359 0 00-19.562-3.316zm2.52 38.994a44.322 44.322 0 00-.02 1.267c0 24.47 19.836 44.309 44.308 44.309 2.412 0 4.817-.208 7.195-.602.324-.71.637-1.426.934-2.152-2.68.504-5.402.754-8.129.754-24.226 0-43.896-19.447-44.289-43.576z" fill="#fff" fill-opacity=".599"/></svg>
